X:138
T:Steirer fuer zwei Seitelpfeifen
C:gefunden im internet, im abc Format bei Martin Doerring, dort in D, zweistimmig
C:mit folgender Angabe: von Raimund Zoder und Rudolf PreissI
M:3/4
L:1/8
K:C
Gc eg Gg | d2 GB d2 | GB dg Gg | e2 Gc e2 |\
Gc eg Gg | d2 GB d2 | GB dg Gg | e4 z2 :|
